archdroid-icon-theme/Archdroid-Shamrock/status/scalable/nm-signal-75-secure.svg

<?xml version="1.0" encoding="UTF-8" standalone="no"?>
<svg
   xmlns:dc="http://purl.org/dc/elements/1.1/"
   xmlns:cc="http://creativecommons.org/ns#"
   xmlns:rdf="http://www.w3.org/1999/02/22-rdf-syntax-ns#"
   xmlns:svg="http://www.w3.org/2000/svg"
   xmlns="http://www.w3.org/2000/svg"
   xmlns:sodipodi="http://sodipodi.sourceforge.net/DTD/sodipodi-0.dtd"
   xmlns:inkscape="http://www.inkscape.org/namespaces/inkscape"
   fill="#00E676"
   width="48"
   height="48"
   viewBox="0 0 48 48"
   id="svg2"
   version="1.1"
   inkscape:version="0.91 r13725"
   sodipodi:docname="nm-signal-75-secure.svg">
  <metadata
     id="metadata12">
    <rdf:RDF>
      <cc:Work
         rdf:about="">
        <dc:format>image/svg+xml</dc:format>
        <dc:type
           rdf:resource="http://purl.org/dc/dcmitype/StillImage" />
      </cc:Work>
    </rdf:RDF>
  </metadata>
  <defs
     id="defs10" />
  <sodipodi:namedview
     pagecolor="#ffffff"
     bordercolor="#666666"
     borderopacity="1"
     objecttolerance="10"
     gridtolerance="10"
     guidetolerance="10"
     inkscape:pageopacity="0"
     inkscape:pageshadow="2"
     inkscape:window-width="1366"
     inkscape:window-height="713"
     id="namedview8"
     showgrid="false"
     inkscape:snap-bbox="true"
     inkscape:bbox-nodes="true"
     inkscape:zoom="3.897603885191483"
     inkscape:cx="48.2410545438599"
     inkscape:cy="5.420121020637595"
     inkscape:window-x="0"
     inkscape:window-y="30"
     inkscape:window-maximized="1"
     inkscape:current-layer="svg2"
     inkscape:snap-page="true" />
  <path
     d="M24.02 42.98L47.28 14c-.9-.68-9.85-8-23.28-8S1.62 13.32.72 14l23.26 28.98.02.02.02-.02z"
     id="path4"
     fill-opacity=".3" />
  <path
     id="path4208"
     style="fill:#00E676"
     d="m 42,32 c -2.208,0 -3.9996526516162,1.68000002561371 -4,3.75 L 38,38 37.71484375,38 C 36.76535412955281,38 36,38.74275846004487 36,39.666015625 l 0,6.666015625 C 36,47.25528841495514 36.76535412955281,48 37.71484375,48 l 8.572265625,0 C 47.2365989954472,48 48,47.25528841495514 48,46.33203125 l 0,-6.666015625 C 48,38.74275846004487 47.2365989954472,38.00000000000001 46.287109375,38 L 46,38 46,35.75 C 46,33.67999999999998 44.20800000000011,32 42,32 Z m 0,2 c 1.10666666666671,0 2,0.89333333333332 2,2 l 0,2 -4,0 0,-2 c 0,-1.10666666666669 0.89333333333329,-2.00000000000002 2,-2 z M 7.070000000000001,21.91 23.99,42.98000000000001 l 0.01,0.02 0.02,-0.02 L 40.94000000000001,21.91 C 40.08,21.25 33.62,16 24,16 14.37,16 7.920000000000002,21.25 7.070000000000001,21.91 Z" />
</svg>

<svg xmlns="http://www.w3.org/2000/svg" fill="#00E676" viewBox="0 0 48 48"><path d="M24.02 42.98L47.28 14c-.9-.68-9.85-8-23.28-8S1.62 13.32.72 14l23.26 28.98.02.02.02-.02z" fill-opacity=".3"/><path d="m42 32c-2.208 0-4 1.68-4 3.75v2.25h-.285c-.949 0-1.715.743-1.715 1.666v6.666c0 .923.765 1.668 1.715 1.668h8.572c.949 0 1.713-.745 1.713-1.668v-6.666c0-.923-.763-1.666-1.713-1.666h-.287v-2.25c0-2.07-1.792-3.75-4-3.75m0 2c1.107 0 2 .893 2 2v2h-4v-2c0-1.107.893-2 2-2zm-34.93-12.09l16.92 21.07.01.02.02-.02 16.92-21.07c-.86-.66-7.32-5.91-16.94-5.91-9.63 0-16.08 5.25-16.93 5.91"/></svg>
